images_sukapura_svg/cmd/32/printlayout.svg

<svg height="32" viewBox="0 0 8.4666665 8.4666669" width="32" xmlns="http://www.w3.org/2000/svg" xmlns:xlink="http://www.w3.org/1999/xlink"><linearGradient id="a" gradientUnits="userSpaceOnUse" x1="4.233334" x2="4.233334" y1="294.08957" y2="289.85623"><stop offset="0" stop-color="#4680ce"/><stop offset="1" stop-color="#5ea0ee"/></linearGradient><linearGradient id="b" gradientUnits="userSpaceOnUse" x1="3.96875" x2="3.96875" y1="294.61874" y2="295.67706"><stop offset="0" stop-color="#b0b0b0"/><stop offset=".49999985" stop-color="#cecece"/><stop offset=".75000322" stop-color="#f4f4f4"/><stop offset=".75000322" stop-color="#e5e5e5"/><stop offset="1" stop-color="#fff"/></linearGradient><radialGradient id="c" cx="17" cy="6.555555" gradientTransform="matrix(1.4285714 -.00000006 .00000006 1.4285714 -7.285714 -4.365078)" gradientUnits="userSpaceOnUse" r="7"><stop offset="0" stop-color="#d7d7d7"/><stop offset=".29999998" stop-color="#f7f7f7"/><stop offset="1" stop-color="#fff"/></radialGradient><linearGradient id="d" gradientUnits="userSpaceOnUse" x1="15" x2="17" y1="7" y2="4.999999"><stop offset="0" stop-color="#fff"/><stop offset=".77967989" stop-color="#f1f1f1"/><stop offset="1" stop-color="#d5d5d5"/></linearGradient><g transform="translate(0 -288.53332)"><path d="m.529167 289.59164h7.408333v4.762509h-7.408333z" fill="#2c2c2c"/><path d="m1.058333 290.12082h6.35v3.704168h-6.35z" fill="url(#a)"/><path d="m3.3072917 294.48644v.79375l-.5291666.26459.0000006.26457 2.9104165.00002-.0000004-.26459-.5291667-.26459v-.79375z" fill="url(#b)" stroke="#959595" stroke-width=".264583"/></g><g transform="matrix(.26458333 0 0 .26458333 2.910417 2.38125)"><path d="m6.9999994 3.0000122-.0000001 16.0000128 12.0000007-.000012v-12.2706035l-4-3.7294095z" fill="url(#c)"/><path d="m6.9999994 2.0000122c-.554.0000009-1 .446-1 1l-.0000001 16.0000128c0 .554.446 1 1 1l12.0000007-.000012c.554-.000001 1-.446 1-1v-8.109388-3.6412209-.2079239c0-.4506799.09887-.4265951-.604637-1.0675892l-3.307389-3.2370335c-.709525-.7368575-.711223-.7368575-1.094804-.7368575h-.331557-.661613zm0 1 7.0000006-.0000122v4c0 .554.446 1 1 1h4v11.000013l-12.0000007.000012z" fill="#98989d"/><path d="m15 7h4l-4-4z" fill="#fff" fill-rule="evenodd"/><path d="m15 3 4 4h-4z" fill="url(#d)"/></g></svg>

<?xml version="1.0" encoding="UTF-8" standalone="no"?>
<!-- Created with Inkscape (http://www.inkscape.org/) -->

<svg
   xmlns:dc="http://purl.org/dc/elements/1.1/"
   xmlns:cc="http://creativecommons.org/ns#"
   xmlns:rdf="http://www.w3.org/1999/02/22-rdf-syntax-ns#"
   xmlns:svg="http://www.w3.org/2000/svg"
   xmlns="http://www.w3.org/2000/svg"
   xmlns:xlink="http://www.w3.org/1999/xlink"
   xmlns:sodipodi="http://sodipodi.sourceforge.net/DTD/sodipodi-0.dtd"
   xmlns:inkscape="http://www.inkscape.org/namespaces/inkscape"
   width="32"
   height="32"
   viewBox="0 0 8.4666665 8.4666669"
   version="1.1"
   id="svg8"
   inkscape:version="0.92.3 (unknown)"
   sodipodi:docname="printlayout.svg">
  <defs
     id="defs2">
    <linearGradient
       inkscape:collect="always"
       id="linearGradient852">
      <stop
         style="stop-color:#b0b0b0;stop-opacity:1;"
         offset="0"
         id="stop848" />
      <stop
         id="stop860"
         offset="0.49999985"
         style="stop-color:#cecece;stop-opacity:1" />
      <stop
         id="stop856"
         offset="0.75000322"
         style="stop-color:#f4f4f4;stop-opacity:1" />
      <stop
         style="stop-color:#e5e5e5;stop-opacity:1"
         offset="0.75000322"
         id="stop858" />
      <stop
         style="stop-color:#ffffff;stop-opacity:1"
         offset="1"
         id="stop850" />
    </linearGradient>
    <linearGradient
       inkscape:collect="always"
       id="linearGradient844">
      <stop
         style="stop-color:#4680ce;stop-opacity:1;"
         offset="0"
         id="stop840" />
      <stop
         style="stop-color:#5ea0ee;stop-opacity:1"
         offset="1"
         id="stop842" />
    </linearGradient>
    <clipPath
       clipPathUnits="userSpaceOnUse"
       id="clipPath828">
      <rect
         style="opacity:1;fill:#ffffff;fill-opacity:0.78431373;stroke:none;stroke-width:0.26458332;stroke-linecap:round;stroke-linejoin:round;stroke-miterlimit:4;stroke-dasharray:none;stroke-opacity:0"
         id="rect830"
         width="15.780505"
         height="13.418155"
         x="-69.642113"
         y="64.45015" />
    </clipPath>
    <linearGradient
       inkscape:collect="always"
       xlink:href="#linearGradient844"
       id="linearGradient846"
       x1="4.2333336"
       y1="294.08957"
       x2="4.2333336"
       y2="289.85623"
       gradientUnits="userSpaceOnUse" />
    <linearGradient
       inkscape:collect="always"
       xlink:href="#linearGradient852"
       id="linearGradient854"
       x1="3.96875"
       y1="294.61874"
       x2="3.96875"
       y2="295.67706"
       gradientUnits="userSpaceOnUse" />
    <radialGradient
       id="b"
       cx="17"
       cy="6.5555549"
       gradientTransform="matrix(1.4285714,-6e-8,6e-8,1.4285714,-7.285714,-4.365078)"
       gradientUnits="userSpaceOnUse"
       r="7">
      <stop
         offset="0"
         stop-color="#d7d7d7"
         id="stop9" />
      <stop
         offset=".29999998"
         stop-color="#f7f7f7"
         id="stop11" />
      <stop
         offset="1"
         stop-color="#fff"
         id="stop13" />
    </radialGradient>
    <linearGradient
       id="a"
       gradientUnits="userSpaceOnUse"
       x1="15"
       x2="17"
       y1="7"
       y2="4.999999">
      <stop
         offset="0"
         stop-color="#fff"
         id="stop2" />
      <stop
         offset=".77967989"
         stop-color="#f1f1f1"
         id="stop4" />
      <stop
         offset="1"
         stop-color="#d5d5d5"
         id="stop6" />
    </linearGradient>
  </defs>
  <sodipodi:namedview
     id="base"
     pagecolor="#ffffff"
     bordercolor="#666666"
     borderopacity="1.0"
     inkscape:pageopacity="0.0"
     inkscape:pageshadow="2"
     inkscape:zoom="15"
     inkscape:cx="16.834999"
     inkscape:cy="8.4262429"
     inkscape:document-units="mm"
     inkscape:current-layer="layer1"
     showgrid="true"
     units="px"
     inkscape:window-width="1366"
     inkscape:window-height="699"
     inkscape:window-x="0"
     inkscape:window-y="0"
     inkscape:window-maximized="1">
    <inkscape:grid
       type="xygrid"
       id="grid832"
       spacingx="0.13229167"
       spacingy="0.13229167"
       empspacing="2" />
  </sodipodi:namedview>
  <metadata
     id="metadata5">
    <rdf:RDF>
      <cc:Work
         rdf:about="">
        <dc:format>image/svg+xml</dc:format>
        <dc:type
           rdf:resource="http://purl.org/dc/dcmitype/StillImage" />
        <dc:title></dc:title>
      </cc:Work>
    </rdf:RDF>
  </metadata>
  <g
     inkscape:label="Layer 1"
     inkscape:groupmode="layer"
     id="layer1"
     transform="translate(0,-288.53332)">
    <g
       id="g865">
      <rect
         y="289.59164"
         x="0.5291667"
         height="4.7625089"
         width="7.4083333"
         id="rect834"
         style="opacity:1;fill:#2c2c2c;fill-opacity:1;stroke:none;stroke-width:0.26458332;stroke-linecap:round;stroke-linejoin:round;stroke-miterlimit:4;stroke-dasharray:none;stroke-opacity:0" />
      <rect
         y="290.12082"
         x="1.0583334"
         height="3.7041676"
         width="6.3499999"
         id="rect836"
         style="opacity:1;fill:url(#linearGradient846);fill-opacity:1;stroke:none;stroke-width:0.26458332;stroke-linecap:round;stroke-linejoin:round;stroke-miterlimit:4;stroke-dasharray:none;stroke-opacity:0" />
      <path
         sodipodi:nodetypes="ccccccccc"
         inkscape:connector-curvature="0"
         id="path838"
         d="m 3.3072917,294.48644 v 0.79375 l -0.5291666,0.26459 6e-7,0.26457 2.9104165,2e-5 -4e-7,-0.26459 -0.5291667,-0.26459 v -0.79375 z"
         style="fill:url(#linearGradient854);stroke:#959595;stroke-width:0.26458332px;stroke-linecap:butt;stroke-linejoin:miter;stroke-opacity:1;fill-opacity:1" />
    </g>
    <g
       transform="matrix(0.26458333,0,0,0.26458333,2.9104169,290.91457)"
       id="g844">
      <path
         style="fill:url(#b)"
         inkscape:connector-curvature="0"
         id="path16"
         d="m 6.9999994,3.0000122 -1e-7,16.0000128 L 19,19.000013 V 6.7294095 L 15,3 Z"
         sodipodi:nodetypes="cccccc" />
      <path
         style="fill:#98989d"
         inkscape:connector-curvature="0"
         id="path18"
         d="m 6.9999994,2.0000122 c -0.554,9e-7 -1,0.446 -1,1 l -1e-7,16.0000128 c 0,0.554 0.446,1 1,1 L 19,20.000013 c 0.554,-10e-7 1,-0.446 1,-1 V 10.890625 7.2494041 7.0414802 C 20,6.5908003 20.09887,6.6148851 19.395363,5.973891 L 16.087974,2.7368575 C 15.378449,2 15.376751,2 14.99317,2 H 14.661613 14 Z m 0,1 L 14,3 v 4 c 0,0.554 0.446,1 1,1 h 4 v 11.000013 l -12.0000007,1.2e-5 z"
         sodipodi:nodetypes="ssssssccsccsccsccsscccc" />
      <path
         style="fill:#ffffff;fill-rule:evenodd"
         inkscape:connector-curvature="0"
         id="path20"
         d="m 15,7 h 4 L 15,3 Z" />
      <path
         style="fill:url(#a)"
         inkscape:connector-curvature="0"
         id="path22"
         d="m 15,3 4,4 h -4 z" />
    </g>
  </g>
</svg>
